X:1
T:Broomsgrove, 10.10.13.10
T:Broomsgrove, 10.10.13.10
T:Frederick Charles Maker, 1897
T:Public Domain Courtesy of the Cyber Hymnal™
C:Frederick Charles Maker, 1897
Z:Public Domain
Z:Courtesy of the Cyber Hymnal™
%%score ( 1 2 ) ( 3 4 )
L:1/8
Q:1/4=110
M:none
K:A
V:1 treble 
V:2 treble 
V:3 bass 
V:4 bass 
V:1
 [CEA]4 [CEA]3 [CEA] | [CEA]2 [B,E]2 [CA]4 | [AB]4 [Gc]3 [Gd] | [Ac]8 | [Ec]4 [Fc]3 [GB] x2 | %5
 [FA]2 [EG]2 F4 | [GB]4 [^DG]3 [DF] | E8 | [CE]4 [EA]2 [CE]2 | [DF]3 [DF] [DF]4 | %10
 [DF]3 [EF] [Fd]2 [Fc]2 | [FB]2 [FA]2 G4 | [CA]4 [EB]2 [Ec]2 | [=Ge]2 [Fd]2 ([DA]2 [AB]2) | %14
 [Ac]4 [Gc]3 [GB] | A8 |] %16
V:2
 x8 | x8 | x8 | x8 | C8- x2 | C8 | x8 | E8 | x8 | x8 | x8 | x4 (E2 D2) | x8 | x8 | x8 | A8 |] %16
V:3
 [A,,A,]4 [A,,A,]3 [A,,A,] | [A,,A,]2 [G,,G,]2 ([F,,F,]2 [E,,E,]2) | [D,,D,F]4 [E,,E,E]3 [E,,E,E] | %3
 [A,,A,E]8 | C,6 [^D,,^D,]3 [^E,,^E,] | [F,,F,]2 [G,,G,]2 ([A,,A,]2 [^A,,^A,]2) | %6
 [B,,B,]4 [B,,B,]3 [B,,A,] | [E,G,]8 | [A,,A,]4 [C,A,]2 [A,,A,]2 | [D,A,]3 [D,A,] [D,A,]4 | %10
 [D,A,]3 [C,^A,] [B,,B,]2 [C,A,]2 | [D,B,]2 [^D,B,]2 B,4 | [F,A,]4 [E,G,]2 A,2 | %13
 [C,A,]2 [D,A,]2 ([F,D]2 [=F,^D]2) | [E,E]4 [E,E]3 [E,D] | [A,,C]8 |] %16
V:4
 x8 | x8 | x8 | x8 | C,,4 x6 | x8 | x8 | x8 | x8 | x8 | x8 | x4 (E,2 ^E,2) | x6 A,2 | x8 | x8 | %15
 x8 |] %16

